icons/1_Primary/QNAP.svg

<svg width="1024" height="1024" viewBox="0 0 1024 1024" fill="none" xmlns="http://www.w3.org/2000/svg">
<g clip-path="url(#clip0_2_3258)">
<path d="M512 1024C794.77 1024 1024 794.77 1024 512C1024 229.23 794.77 0 512 0C229.23 0 0 229.23 0 512C0 794.77 229.23 1024 512 1024Z" fill="#56595B"/>
<path d="M677.93 571.16H632.77V539.74H568.95V571.16H523.78V478.37C523.679 474.713 524.424 471.082 525.958 467.76C527.491 464.438 529.771 461.516 532.62 459.22C538.51 454.8 546.86 452.84 557.62 452.84H644.02C654.82 452.84 663.17 455.29 669.02 459.71C674.87 464.13 677.86 470.51 677.86 478.86L677.93 571.16ZM632.77 518.16V483.77H568.95V518.13L632.77 518.16ZM840.43 458.76C836.01 455.32 828.65 453.36 819.32 452.87H733.41C722.61 452.87 714.26 455.32 708.41 459.74C705.586 461.835 703.309 464.579 701.77 467.74C700.232 470.901 699.477 474.386 699.57 477.9V571.68H744.7V540.72H817.85C837.98 540.72 847.8 532.87 847.8 516.66V478.37C847.79 469 845.34 462.66 840.43 458.74V458.76ZM801.65 514.23H744.21V483.77H801.65V514.23ZM466.84 452.84H460V521.57C459.51 522.06 459 523.04 457.55 522.57C457.238 522.551 456.936 522.448 456.678 522.272C456.419 522.096 456.212 521.854 456.08 521.57C448.72 510.28 419.26 469.57 409.93 456.77L409.44 456.28C406.692 453.981 403.202 452.759 399.62 452.84H362.76C358.34 452.84 354.41 454.31 351.96 456.77C350.638 458.132 349.606 459.748 348.925 461.52C348.245 463.292 347.93 465.183 348 467.08V571.65H390.71C390.71 571.65 390.71 516.65 390.22 500.47C390.22 499.47 391.22 498.02 394.64 498.02C394.64 498.02 396.11 498.02 396.64 499.02C405 512.25 459 571.65 459 571.65H503.67V452.84H466.84ZM273.41 543.66C272.92 543.17 271.94 542.66 271.41 542.19H223.83V479.84H287.16V532.84C306.31 538.73 319.07 546.59 327.91 553.46C329.52 549.228 330.35 544.739 330.36 540.21V482.79C330.36 463.15 318.58 452.35 295.5 451.37H215.5C189.5 451.37 176.23 461.68 176.23 482.79V540.72C176.23 561.83 189.48 572.14 215.5 572.14H291.59C295.372 572.072 299.145 571.738 302.88 571.14C296.49 561.83 284.7 552 273.41 543.66ZM258.68 529.42C272.92 538.26 298.94 556.42 307.28 572.62H339.68C334.29 562.81 315.63 538.76 258.68 529.43V529.42Z" fill="white"/>
</g>
<defs>
<clipPath id="clip0_2_3258">
<rect width="1024" height="1024" fill="white"/>
</clipPath>
</defs>
</svg>

<svg xmlns="http://www.w3.org/2000/svg" viewBox="0 0 1024 1024">
   <circle cx="512" cy="512" r="512" style="fill:#757575"/>
   <path d="M677.93 571.16h-45.16v-31.42h-63.82v31.42h-45.17v-92.79a23.75 23.75 0 0 1 8.84-19.15c5.89-4.42 14.24-6.38 25-6.38h86.4c10.8 0 19.15 2.45 25 6.87s8.84 10.8 8.84 19.15Zm-45.16-53v-34.39h-63.82v34.36Zm207.66-59.4c-4.42-3.44-11.78-5.4-21.11-5.89h-85.91c-10.8 0-19.15 2.45-25 6.87a21.89 21.89 0 0 0-8.84 18.16v93.78h45.13v-30.96h73.15c20.13 0 29.95-7.85 29.95-24.06v-38.29c-.01-9.37-2.46-15.71-7.37-19.63Zm-38.78 55.47h-57.44v-30.46h57.44Zm-334.81-61.39H460v68.73c-.49.49-1 1.47-2.45 1a1.74 1.74 0 0 1-1.47-1c-7.36-11.29-36.82-52-46.15-64.8l-.49-.49a14.78 14.78 0 0 0-9.82-3.44h-36.86c-4.42 0-8.35 1.47-10.8 3.93a14.06 14.06 0 0 0-3.96 10.31v104.57h42.71s0-55-.49-71.18c0-1 1-2.45 4.42-2.45 0 0 1.47 0 2 1C405 512.25 459 571.65 459 571.65h44.67V452.84Zm-193.43 90.82c-.49-.49-1.47-1-2-1.47h-47.58v-62.35h63.33v53c19.15 5.89 31.91 13.75 40.75 20.62a37.48 37.48 0 0 0 2.45-13.25v-57.42c0-19.64-11.78-30.44-34.86-31.42h-80c-26 0-39.27 10.31-39.27 31.42v57.93c0 21.11 13.25 31.42 39.27 31.42h76.09a80.57 80.57 0 0 0 11.29-1c-6.39-9.31-18.18-19.14-29.47-27.48Zm-14.73-14.24c14.24 8.84 40.26 27 48.6 43.2h32.4c-5.39-9.81-24.05-33.86-81-43.19Z" style="fill:#fff"/>
</svg>
